X:191
T:Reel 191
M:4/4
K:Dmix
L:1/8
AG|F>D (3DDD FDDG|F>D (3DCD A>G (3GFE |F>D (3DDD A>D (3DCD |ECCE cEFG|FEDE FGAD|FEDE FGAG|FEFG ABcA|GECE G2|GE|FEFG ABAG|FEFG Addc|ABcE FEFD|EDCD EFGE|FEFG ABcB|dedc defg|afge fdec|dcAF FGAG|
